!!!!SEGMENT: 056-1a-Sm-003.krn
!!!COM: Chopin, Frederic
!!!OTL: Mazurka No. 3
!!!OPS: Op. 56
!!!PTL: 3 Mazurkas
!!!PPR: M. Schlesinger
!!!PPP: Paris
!!!NIFC-rismID: 1001007671
!!!NIFC-shelfmark: PL-Wbfc 3683/n
!!!OMD: Moderato.
**kern	**kern	**dynam
*part1	*part1	*part1
*staff2	*staff1	*
*clefF4	*clefG2	*
*k[b-e-a-]	*k[b-e-a-]	*
*c:	*c:	*
*M3/4	*M3/4	*
*	*	*
*kcancel	*kcancel	*
N(>4G	4r	mf
=1	=1	=1
*	*^	*
4r	4r	[2.gN)	>
(8fL	8r	.	.
8e-	(8ccL	.	]
8d	8dd 8bn	.	.
8cJ	8ee-J 8cc	.	.
=2	=2	=2	=2
*	*	*^	*
8.dL	8.ffL	4bn	2.g\]	.
16GJk	16ggJk	.	.	.
4d	4ff	4b	.	.
4c	4ee-	4cc	.	.
=3	=3	=3	=3	=3
8.dL	8.ffL	4bn	[2.g\	.
16GJk	16ggJk	.	.	.
4d	4ff	4b	.	.
)4c	4ee-	4cc)	.	.
*	*	*v	*v	*
=4	=4	=4	=4
2.r	2.r	4g]	.
.	.	(>\8BnL	.
.	.	8c	.
.	.	8d	.
.	.	8e-J	.
=5	=5	=5	=5
4r	4r	[2.d)	>
(8cL	8r	.	.
8B-X	(8gL	.	]
8An	8an 8f#X	.	.
8GJ	8b-J 8g	.	.
!!LO:LB:g=original
=6	=6	=6	=6
*	*	*^	*
8.AnL	8.ccL	4f#X	2.d\_	.
16DJk	16ddJk	.	.	.
4A	4cc	4f#	.	.
4G	4b-	4g	.	.
=7	=7	=7	=7	=7
8.AnL	8.ccL	4f#X	2.d\]	.
16DJk	16ddJk	.	.	.
4A	4cc	4f#	.	.
[4G)	4b-)	4g	.	.
*	*	*v	*v	*
=8	=8	=8	=8
*^	*	*	*
2.c	2.G][>	(2a-X	2.e-	>
.	.	4f#X	.	.
*	*	*v	*v	*
=9	=9	=9	=9
[2.G]	4r	4.g 4.d 4.Bn)	]
.	8FL	.	.
.	8E-	(>8cL	.
.	8D	8d 8B	.
.	8CJ	8e-J 8c	.
=10	=10	=10	=10
*	*	*^	*
2.G_	8.DL	8.fL	4Bn	.
.	16GGJk	16gJk	.	.
.	4D	4f	4B	.
.	4C	4e-	4c	.
=11	=11	=11	=11	=11
2.G_	8.DL	8.fL	4Bn	.
.	16GGJk	16gJk	.	.
.	4D	4f	4B	.
.	4C	)4e-	4c	.
*v	*v	*	*	*
*	*v	*v	*
=12	=12	=12
8G/L]	2.r	.
N(>8CM<	.	.
8BBn	.	.
8C	.	.
8D	.	.
8E-J	.	.
!!LO:LB:g=original
=13	=13	=13
8DL	8D<L	<
8C#X\	8En<	.
8Cn	8F#X<	.
8BB-	8G<	.
8AAn	8An< 8F#<	.
8GGJ	8B-<N) 8G<J	.
=14	=14	=14
8.AAn\L	(>8An<L 8F<	[ f
.	16r	.
16AAAnJk	16c#XJk 16En<	.
*ped	*	*
2D\ 2DD\	2d 2D<)	>
.	.	]]
=15	=15	=15
*^	*	*
8AnL	[2.D	(>8anL 8f	p
*Xped	*	*	*
16rB	.	16r	.
16GJk	.	16cc#XJk 16en	.
2F	.	2dd 2d)	.
=16	=16	=16	=16
8AnL	2.D_	(>8anL 8f	.
16rB	.	16r	.
16GJk	.	16cc#XJk 16en	.
2F	.	2dd [2d)	.
=17	=17	=17	=17
*	*	*^	*
8AnL	2.D_	(8anL	][2.d	.
8cJ	.	8ccJ	.	.
4B-	.	4b-M	.	.
8AL	.	8aL	.	.
8GJ	.	8gJ	.	.
=18	=18	=18	=18	=18
8.AnL	2.D_	8.anL	2.d_	.
16EnJk	.	16enJk	.	.
4F	.	4f	.	.
4D	.	4d^<	.	.
!!LO:LB:g=original
=19	=19	=19	=19	=19
8AnL	2.D_	8anL	2.d_	.
8cJ	.	8ccJ	.	.
4B-	.	4b-M	.	.
8AL	.	8aL	.	.
8GJ	.	8gJ	.	.
=20	=20	=20	=20	=20
8.AnL	2.D_	8.anL	2.d_	.
16E-Jk	.	16enJk	.	.
4F	.	4f	.	.
4D^	.	4d)	.	.
=21	=21	=21	=21	=21
*	*	*	*^	*
!	!	!	!LO:TX:a:t=P:problem:2.d 2.a przed 8.a,	!	!
8.AnL	2.D_	(>8.anL	[>2.an/ 2.d/_<	2.d_	.
16EnJk	.	16enJk	.	.	.
!	!	!LO:TX:t=rall-in tempo:dur=9q:ext=ud:problem:text with extention lines	!	!	!
4F	.	4f	.	.	.
4D^	.	4d	.	.	.
*	*	*v	*v	*	*
=22	=22	=22	=22	=22
8.AnL	2.D]	2.an] 2.d]	8.anL	.
16EnJk	.	.	16enJk	.
4F	.	.	4f	.
4D	.	.	4d	.
*v	*v	*	*	*
*	*v	*v	*
=23	=23	=23
*ped	*	*
(>2.GG	2.bn 2.g 2.d)	.
=24	=24	=24
8GL)	2.r	.
16r	.	.
16GJk'	.	.
4G'	.	.
N(>4G	.	.
!!LO:LB:g=original
=25	=25	=25
*	*^	*
4r	4r	[2.gN)	>
*Xped	*	*	*
8fL(	8r	.	.
8e-	(8ccL	.	]
8d	8dd 8bn	.	.
8cJ	8ee-J 8cc	.	.
=26	=26	=26	=26
*	*	*^	*
8.dL	8.ffL	4bn	2.g\_	.
16GJk	16ggJk	.	.	.
4d	4ff	4b	.	.
4c	4ee-	4cc	.	.
=27	=27	=27	=27	=27
8.dL	8.ffL	4bn	2.g\_	.
16GJk	16ggJk	.	.	.
4d	4ff	4b	.	.
4c)	4ee-)	4cc	.	.
*	*	*v	*v	*
=28	=28	=28	=28
2.r	2.r	4g\]	.
.	.	(>\8BnL	.
.	.	8c	.
.	.	8d	.
.	.	8e-J	.
=29	=29	=29	=29
4r	4r	[<2.d)	>
8cL	8r	.	.
8B-X	(8gL	.	]
8An	8an 8f#X	.	.
8GJ	8b-J 8g	.	.
=30	=30	=30	=30
*	*	*^	*
8.AnL	8.ccL	4f#X	2.d\_	.
16DJk	16ddJk	.	.	.
4A	4cc	4f#	.	.
4G	4b-	4g	.	.
=31	=31	=31	=31	=31
!	!	!	!LO:TX:a:t=P:problem:brak zakonczenia luku	!
8.AnL	8.ccL	4f#X	&(<2.d\]	.
16DJk	16ddJk	.	.	.
4A	4cc	4f#	.	.
[4G	4b-	4g	.	.
*	*	*v	*v	*
!!LO:PB:g=original
=32	=32	=32	=32
*^	*	*	*
(2.c	2.G]	2a-X	2.e-X&)	.
.	.	4f#X	.	.
*	*	*v	*v	*
=33	=33	=33	=33
[2.G)	4r	4.g 4.d 4.Bn)	.
.	8FL	.	.
.	8E-	8cL(>	.
.	8D	8d 8B	.
.	8CJ	8e-J 8c	.
=34	=34	=34	=34
*	*	*^	*
2.G_	8.DL	8.fL	4Bn	.
.	16GGJk	16gJk	.	.
.	4D	4f	4B	.
.	4C	4e-	4c	.
=35	=35	=35	=35	=35
2.G_	8.DL	8.fL	4Bn	.
.	16GGJk	16gJk	.	.
.	4D	4f	4B	.
.	4C	4e-	4c)	.
*v	*v	*	*	*
*	*v	*v	*
=36	=36	=36
8GL]	2.r	.
N(>8CM</	.	.
8BBn	.	.
8C	.	.
8D	.	.
8E-J	.	.
=37	=37	=37
8DL	8D<L	.
8C#X\	8En<	.
8Cn	8F#<X	.
8BB-	8G<	.
8AAny	8An< 8F#<	.
8GGJ	8B-<N) 8G<J	.
!!LO:LB:g=original
=38	=38	=38
8.AAn\L	(>8An< 8F<nL	f
.	16r	.
16AAAnJk	16c#X 16E<nyJk	.
*ped	*	*
2DD\	2d 2D<)	.
=39	=39	=39
*^	*	*
8AnL	[2.D	(>8anL 8f	p
*Xped	*	*	*
16rB	.	16r	[
16GJk	.	16cc#XJk 16en	.
2F	.	2dd 2d)	.
=40	=40	=40	=40
8AnyL	2.D]	(>8anL 8f	.
16rB	.	16r	.
16GJk	.	16cc#XJk 16en	.
2F	.	2dd 2d)	.
=41	=41	=41	=41
*	*	*^	*
8AnL	2.D_	(8anL	[2.d	.
8cJ	.	8ccJ	.	.
4B-	.	4b-M	.	.
8AL	.	8aL	.	.
8GJ	.	8gJ	.	.
=42	=42	=42	=42	=42
8.AnyL	2.D]	8.anyL	2.d_	.
16EnJk	.	16enJk	.	.
4F	.	4f	.	.
4D	.	4d	.	.
=43	=43	=43	=43	=43
8AnL	[2.D	8anL	2.d_	.
8cJ	.	8ccJ	.	.
4B-	.	4b-M	.	.
8AL	.	8aL	.	.
8GJ	.	8gJ	.	.
!!LO:LB:g=original
=44	=44	=44	=44	=44
!	!	!	!LO:TX:t=P:problem:brak zakonczenia ligatury	!
8.AnL	2.D_	8.anL	2.d_	.
16EnJk	.	16enJk	.	.
4F	.	4f	.	.
4D	.	4d)	.	.
=45	=45	=45	=45	=45
!  	!	!LO:TX:t=dim _:problem:dynamics with extention lines	!	!LO:HP:i:t=dim:ext=ud
8.AnL	2.D_	(8.anL	2.d_	>
16EnJk	.	(16enJk	.	.
4F	.	4f)	.	.
4D	.	4d	.	.
=46	=46	=46	=46	=46
8.AnL	2.D]	8.anL	2.d]	.
16EnJk	.	16enyJk	.	.
4F	.	4f	.	.
4D	.	4d	.	.
*v	*v	*	*	*
*	*v	*v	*
=47	=47	=47
*	*	*^
*ped	*	*	*
2.d	(>2.dd)	]	>]]
*	*	*v	*v
=48	=48	=48
2.r	8dL)	<
*Xped	*	*
.	16r	.
.	16dJk	.
.	4d	.
.	4d	[[
=49	=49	=49
*^	*	*
4r	4ryy	(>2d^<	f
4A-X</	4BB-	.	.
!	!	!LO:S:s=1:note:problem:note-level slur	!
4ryy	4EE-\	4e-) 4G<	[
*v	*v	*	*
=50	=50	=50
*	*^	*
*ped	*	*	*
8.E-L	(8.gL	4d-X	.
*Xped	*	*	*
16A-Jk	16fJk	.	.
4.G 4.E-	4.e- 4.d-	2ryy	<
8A- 8E-	8f 8d-	.	.
*	*v	*v	*
!!LO:LB:g=original
=51	=51	=51
8B-L 8E-	8gL 8d-X	.
16r	16r	.
16cJk 16E-	16a-Jk 16e-	.
4d> 4E-	4b- 4f	.
4e-> 4E-	4cc 4g	.
=52	=52	=52
*^	*	*
4ryy	8f>L 8E-	8dd-X/L 8a-/	.
.	16r	16r	[
.	16d-XJk 16E-	16ffJk 16g	.
4d-	2A-	4ee-/ 4g/	.
4c	.	)4a-	.
=53	=53	=53	=53
*	*	*^	*
4r	4r	(2f^	4r	.
2F	4F	.	4e- 4An	.
.	4FF	4g	4e- 4B-	.
*v	*v	*	*	*
*	*v	*v	*
=54	=54	=54
*ped	*	*
!!mixed beam:problem
8FFF'>/L	)8anL 8e- 8c	<
16r	16r	.
16B-\Jk 16F\	(>16gJk 16e- 16c	.
4.Any 4.F	4.f 4.e- 4.c	.
8B- 8F	8g 8e- 8c	.
=55	=55	=55
8cL 8F	8anL 8f 8e-)	.
16r	16r	.
16dJk 16F	(>16b-Jk 16f	.
4e- 4F	4cc 4b- 4g	.
4f 4F	4dd/ 4a/	.
=56	=56	=56
*^	*	*
4ryy	8gL 8F)	8ee-L 8b-)	.
.	16r	16r	.
.	16e-Jk 16F	(16ggJk 16an	[
4e-	2B-	(4ff 4a)	.
4d^	.	4b-)(>	.
*v	*v	*	*
==	==	==
!!LO:LB:g=original
=57	=57	=57
*k[f#c#g#d#a#]	*k[f#c#g#d#a#]	*
*ped	*	*
4e 4c# 4F#	[>4a#)	p
4FF#	(>8a#/L]	.
.	8b	.
4r	8cc#	.
.	8dd#J	.
=58	=58	=58
*	*^	*
4r	8ee/L	2ryy	.
.	8gg#J	.	.
[2F#	4ff#/	.	.
*Xped	*	*	*
.	4a#	4c#	.
=59	=59	=59	=59
2.F#_	8cc#L	8eL	.
.	8eeJ	8g#J	.
.	4dd#	4f#	.
.	4g#	4B	.
=60	=60	=60	=60
2F#]	12bL	4e#X 4dn	>
.	12cc#	.	.
.	12bJ	.	.
.	4.a#	4f# 4c#	]
[4F#	.	4ryy	.
.	8g#	.	.
*	*v	*v	*
=61	=61	=61
*ped	*	*
4en 4A# 4F#]	)8f#L	.
.	(>8g#	.
4FF#'	8a#	.
.	8b	.
4r	8cc#	.
.	8dd#J	.
=62	=62	=62
*	*^	*
4r	8ee/L	2ryy	.
.	8gg#J	.	.
[2F#	4ff#/	.	.
.	4a#	4c#	.
!!LO:PB:g=original
=63	=63	=63	=63
2.F#_	8cc#L	8eL	.
.	8eeJ	8g#J	.
.	4dd#	4f#	.
.	4g#	4B	.
=64	=64	=64	=64
.	8qb/	.	.
2F#]	12bL	4e#X 4dn	>
.	12cc#	.	.
.	12bJ	.	.
.	4.a#	4f# 4c#	]
4F#[	.	4ryy	.
.	8g#	.	.
*	*v	*v	*
=65	=65	=65
4en 4A# ]4F#	)8f#L	.
.	16r	.
.	(>16g#k	<
4FF#'	8a#	.
.	8b	.
4r	8cc#	.
.	8dd#J	.
=66	=66	=66
4r	8eeL	.
!LO:TX:a:i:t=cresc.	!	!
.	8ff#J	[
4r	)4gg#	.
4e 4c# 4F#	4a#\(	.
=67	=67	=67
*k[b-e-]	*k[b-e-]	*
4f 4d 4Fn	8anL	f
.	16r	.
.	16b-k	.
4FF	8cc	.
.	8dd	.
4r	8ee-	.
.	8ffJ	.
=68	=68	=68
4r	8ggL	.
.	8aaJ	.
4r	4bb-)	.
(>[4c [4B- 4En	(>4g	.
!!LO:LB:g=original
=69	=69	=69
*^	*	*
*	*^	*	*
2c]	4B-]	2.F\	8fL	.
.	.	.	8ggJ	.
.	2A	.	4.ff	.
!LO:TX:b:t=P:problem:brak początku łuku w t. 68	!	!	!	!
4e-)	.	.	.	.
.	.	.	8een	.
*v	*v	*v	*	*
=70	=70	=70
*ped	*	*
4BB-	8ee-XL	.
.	8dd	.
4d 4B- 4F	8cc	.
*Xped	*	*
.	8b-	.
4r	8a	.
.	8gJ)	.
=71	=71	=71
*^	*^	*
4r	2.FF	(8fL	4f	>
.	.	8ee-J	.	.
4G	.	4.dd	4en	.
4A	.	.	4e-X	.
.	.	8cc	.	]]
*v	*v	*	*	*
*	*v	*v	*
=72	=72	=72
8B-L 8BB-	8b- 8d)	.
8G	8r	.
8F	4r	.
8E-	.	.
8D	(>N[>4F<^>/	.
8CJ	.	.
=73	=73	=73
*^	*^	*
!LO:TX:b:i:t=sempre legato.	!	!	!	!
[2.FN]	8.BB-L	2d	2.B-	p
.	16GGJk	.	.	.
.	4FF	.	.	.
.	[4BB-	[4e-	.	.
*	*	*v	*v	*
=74	=74	=74	=74
]2.F	8.BB-L]	8.fL 8.e-] 8.B-	.
.	16BBnkJ	16fJk 16e- 16A	.
.	4C	4f 4e- 4G	.
.	.	.	.
.	4FF	4f 4e- 4A)	.
=75	=75	=75	=75
*	*	*^	*
2F	8.BB-L	(>2d	2B-	.
.	16GGJk	.	.	.
.	4FF	.	.	.
!	!	!	!	!LO:HP:a
[4C	4EEn	4g	4B-	>]]
*	*	*v	*v	*
!!LO:LB:g=original
=76	=76	=76	=76
2.C]	8.FFL	8.cL 8.B-	.
.	16CCJk	16cJk 16A	.
.	4FF	4c 4G	.
.	4CC	4c 4A	.
=77	=77	=77	=77
*	*	*^	*
2.C	8.FFL	)(2c	2.A-X	.
.	16DD-XJk	.	.	.
.	4CC	.	.	.
.	4FF	4d	.	.
*v	*v	*	*	*
=78	=78	=78	=78
4C\ 4CC\	8e-L 8G<	4ryy	.
.	16r	.	.
.	16e-Jk	.	.
2G 2C	4.e-	2B-	.
.	8d	.	.
=79	=79	=79	=79
*^	*	*	*
8.E-L	[2.FF	8.cL	4B-	.
16DJk	.	16BnJk	.	<
4E-	.	4c	4A	.
4BBn	.	4d	4A-X	.
*	*	*v	*v	*
=80	=80	=80	=80
8.CL	2FF]	8.e-L 8.G	.
16BB-XJk	.	16enJk 16G-X	.
4AA	.	4f 4F	.
*ped	*	*	*
!LO:TX:b:t=P:problem:łuk między 4AA i 4A	!	!	!
4A\ 4FF\	4ryy	4cc#X\ 4e-X\	[
*v	*v	*	*
=81	=81	=81
*Xped	*	*
8.B-\L 8.F\ 8.BB-\	2dd\ 2b-\ 2d\	f
16GGJk	.	.
4FF	.	.
[4F [4BB-	4ee-\ 4b-\ 4e-\	.
!!LO:LB:g=original
=82	=82	=82
*^	*	*
2F]	8.BB-L]	8.ffL 8.ee- 8.b- 8.f	.
.	16BBnk	16ffJk 16ee- 16a 16f	.
.	8C	4ff 4ee- 4g 4f	.
.	8DJ	.	.
4F	4C	)4ff 4ee- 4a 4f	.
=83	=83	=83	=83
2F	8.BB-L	(>2dd\ 2b-\ 2d\	.
.	16GGJk	.	.
.	4FF	.	.
[4C	4EEn	4gg 4cc 4b- 4g	.
=84	=84	=84	=84
8.CL]	8.FFL	8.ccL 8.b- 8.f 8.c)	.
16CJk	16CCJk	16ccJk 16a 16f 16c	.
4C	4FF	4cc 4g 4f 4c	.
4C	4CC	4cc 4a 4f 4c	.
=85	=85	=85	=85
2C	8.FFL	(2cc 2a-X 2f 2c	.
.	16DD-XJk	.	.
.	4CC	.	.
[4C	4FF	4ddn 4a- 4dn	.
*v	*v	*	*
=86	=86	=86
*ped	*	*
]8C\L 8CC\	8ee-\L 8g\ 8e-\)	.
16r	16r	.
16cJk 16G 16C	16ee-Jk 16e-	.
4.c 4.G 4.C	(4.ee-\ 4.b-\ 4.e-\	.
*Xped	*	*
8c 8G 8C	8dd\ 8b-\ 8e-\)	.
=87	=87	=87
*ped	*	*
!LO:TX:b:t=P:problem:łuk między 8FF i 8A	!	!
8AL 8C 8FF	8ccM\L 8e-\	.
16r	16r	.
16AJk 16F	(16bnJk 16e-	.
*Xped	*	*
4A 4F	4cc\ 4e-\	.
4A 4F	4dd\^< 4e-\^<	.
!!LO:LB:g=original
=88	=88	=88
4B- 4F 4BB-	4b- 4d^)	.
4r	8c-XL	f>
.	8B-<	.
4r	8A-X<	.
.	8B-<J	]
=89	=89	=89
*ped	*	*
!	!LO:TUP:b	!
4r	(>12c-XL	.
!LO:TX:a:i:t=sostenuto.	!	!
.	12e-	.
.	12cc-XJ	.
!LO:TX:b:t=P:problem:łuk między 4AA- i 4c-	!	!
4c-X 4E- 4AA-y	4b-/	.
!LO:TX:b:t=P:problem:łuk między 4AA- i 4c-	!	!
4c- 4E- 4AA-	)4a-y	.
=90	=90	=90
*Xped	*	*
4r	(>4ee-	.
*ped	*	*
!LO:TX:b:t=P:problem:łuki jak w t. 89	!	!
4c-X 4E- 4AA-y	4.dd-X	.
4c- 4F 4AA-	.	.
*Xped	*	*
.	8cc-X	.
=91	=91	=91
*ped	*	*
4r	8b-L	.
.	8a-XJ	.
4G-X 4C 4EE-	4b-/	.
*Xped	*	*
4G- 4BB- 4EE-	4g-X	.
=92	=92	=92
*ped	*	*
4r	2.e-	.
4G-X 4BB- 4EE-	.	.
*Xped	*	*
4G- 4C 4EE-	.	.
=93	=93	=93
4r	)8dL	.
.	16r	.
.	(>16cJk	.
*ped	*	*
4F 4D 4FF	4B-	.
*Xped	*	*
4F 4D 4FF	4f	.
=94	=94	=94
4r	2.F^	.
*ped	*	*
!LO:TX:b:t=P:problem:łuk między 4FF i 4An	!	!
4An 4E- 4FF	.	.
*Xped	*	*
!LO:TX:b:t=P:problem:łuk między 4FF i 4An	!	!
4A 4E- 4FF	.	.
!!LO:PB:g=original
=95	=95	=95
4r	)2.B-^	.
*ped	*	*
4d-X 4F 4BB-	.	.
4d- 4F 4BB-	.	.
=96	=96	=96
*Xped	*	*
4r	(>8fL	.
.	8qqa-X/	.
.	8g-XJ	.
*ped	*	*
4d-X 4F 4BB-	4f	.
4d- 4F 4BB-	8b-L	.
.	8ccJ	.
=97	=97	=97
*Xped	*	*
4r	8dd-XL	.
.	8qee-/	.
.	8dd-J	.
4d-y 4F 4BB-	4cc	.
*ped	*	*
4d- 4F 4BB-	4b-	.
=98	=98	=98
.	8qb-/	.
4r	<8ffL)	.
.	16r	.
.	16ffJk(>	.
*Xped	*	*
4d-X 4F 4BB-	4ee-	.
4d- 4G 4BB-	4dd-X	.
=99	=99	=99
4r	8ccL	.
.	8b-J	.
4c 4A-X 4C	4cc	.
4c 4A- 4C	4a-X	.
=100	=100	=100
4r	2.f^	.
*ped	*	*
4c-X 4A 4D-X	.	.
4Bn 4A 4D-	.	.
=101	=101	=101
*Xped	*	*
4r	)8a-XL	.
.	16r	.
.	(>16gJk	.
4cn 4A-X 4C	4f	.
4c 4A- 4C	4cc	.
!!LO:LB:g=original
=102	=102	=102
4r	2.c^	.
*ped	*	*
!LO:TX:b:t=P:problem:łuk między 4C i 4en	!	!
4en 4B- 4C	.	.
!LO:TX:b:t=P:problem:łuk między 4C i 4en	!	!
4e 4B- 4C	.	.
*Xped	*	*
=103	=103	=103
4r	)8a-XL	.
.	16r	.
.	(<16gJk	.
4c 4A-X 4C	)4f	.
.	.	.
4c 4A- 4C	(>4cc	.
.	.	.
=104	=104	=104
*ped	*	*
4r	2.c^	.
!LO:TX:b:t=P:problem:łuk między 4C i 4en	!	!
4en 4B- 4C	.	.
!LO:TX:b:t=P:problem:łuk między 4C i 4en	!	!
4e 4B- 4C	.	.
*Xped	*	*
=105	=105	=105
4r	)(>2.f^	.
*ped	*	*
4An 4C	.	.
4FF	.	.
=106	=106	=106
*ped	*	*
4r	8gg-XL	p
.	8ffJ	.
4e- 4A 4F	4ee-	.
4FF	8dd-XL	.
.	8ccJ	.
=107	=107	=107
*Xped	*	*
4r	8ffL	.
.	8ee-J	.
*ped	*	*
4d-X 4B- 4F	4dd-X	.
4FF	8ccL	.
.	8b-J	.
=108	=108	=108
*Xped	*	*
4r	8dd-XL	.
.	8ccJ	.
*ped	*	*
4d-X 4En	4b-	.
4FF	4g-X	.
!!LO:LB:g=original
=109	=109	=109
*Xped	*	*
4r	)4f	.
*ped	*	*
4c 4A 4C	4r	.
4FF	(>4ff	.
=110	=110	=110
4r	8gg-XL	.
.	8ffJ	.
4e- 4A 4F	4ee-	.
4FF	8dd-XL	.
.	8ccJ	.
=111	=111	=111
*Xped	*	*
4r	8ffL	.
.	8ee-J	.
*ped	*	*
4d-X 4B- 4F	4dd-X	.
4FF	8ccL	.
.	8b-J	.
=112	=112	=112
4r	8dd-XL	.
*Xped	*	*
.	8ccJ	.
*ped	*	*
4d-X 4En	4b-	.
4FF	4g-X	.
=113	=113	=113
*Xped	*	*
4r	2f	.
*ped	*	*
4c 4A 4C	.	.
4FF	4cc	.
=114	=114	=114
4r	8dd-XL	.
*Xped	*	*
.	8ccJ	.
*ped	*	*
4d-X 4B- 4E-X	4b-	.
4FF	4g-X	.
=115	=115	=115
*Xped	*	*
4r	2f	.
*ped	*	*
4c 4A 4E-	.	.
4FF	4cc	.
!!LO:LB:g=original
=116	=116	=116
4r	8dd-XL	.
*Xped	*	*
.	8ccJ	.
*ped	*	*
4d-X 4B- 4E-	4b-	.
[<4FF	4g-X	.
*Xped	*	*
=117	=117	=117
4FF]	8e-L	.
.	8enJ	.
4c 4An 4E-	4f	.
4r	8a-XL	.
.	8g-XJ	.
=118	=118	=118
2.r	8cL	.
.	8c#XJ	.
.	4d	.
.	8fL	.
.	8e-J	.
=119	=119	=119
2.rBB	8En<L	.
.	8F<J	.
.	4e-X	.
.	8F<L	.
.	8F#X<J	.
=120	=120	=120
2.rBB	8e-L	.
.	8G<J	.
.	4G#<X/	.
.	8e-L	.
.	8A<J	.
=121	=121	=121
*^	*	*
*	*	*^	*
!LO:TX:b:i:t=legato.	!	!	!	!
[>2.F	8.BB-L	2d	[2.B-	.
.	16GGJk	.	.	.
.	4FF	.	.	.
.	[<4BB-	[4e-	.	.
*	*	*v	*v	*
=122	=122	=122	=122
]2.F	8.BB-L]	8.fL 8.e-] 8.B-]	.
.	16BBnk	16fJk 16e- 16A	.
.	8C	4f 4e- 4G	.
.	8DJ	.	.
.	4C	4f 4e- 4A	.
!!LO:LB:g=original
=123	=123	=123	=123
*	*	*^	*
2F	8.BB-L	2ryy	2B- 2d	.
.	16GGJk	.	.	.
.	4FF	.	.	.
[4C	4EEn	4g 4B-	4ryy	.
*	*	*v	*v	*
=124	=124	=124	=124
2.C]	8.FFL	8.cL 8.B-	.
.	16CCJk	16cJk 16A	.
.	4FF	4c 4G	.
.	4CC	4c 4A	.
=125	=125	=125	=125
*	*	*^	*
2.C	8.FFL	(>)2c	2.A-X	.
.	16DD-XJk	.	.	.
.	4CC	.	.	.
.	4FF	4d	.	.
*v	*v	*	*	*
=126	=126	=126	=126
4C\ 4CC\	8e-L 8G<	4ryy	.
.	16r	.	.
.	16e-Jk	.	.
2G 2C	4.e-	[<2B-)	.
.	(8d	.	.
=127	=127	=127	=127
*^	*	*	*
8.E-L	[2.FF	8.cL	4B-]	.
16DJk	.	16BnJk	.	<
4E-	.	4c	4A	.
4BBn	.	4d	4A-X	.
*	*	*v	*v	*
=128	=128	=128	=128
8.CL	2FF]	8.e-L 8.G<	.
16BB-XJk	.	16enJk 16G-X<	.
4AA	.	)4f 4F<	.
*ped	*	*	*
!	!LO:TX:b:t=P:problem:łuk między 4FF i 4A	!	!
4ryy	4A\ 4FF\	4cc#X(> 4e-X	[[
*v	*v	*	*
!!LO:PB:g=original
=129	=129	=129
*Xped	*	*
8.B-\L 8.F\ 8.BB-\	2dd\ 2b-\ 2d\	f
16GGJk	.	.
4FF	.	.
[>4F [<4BB-	4ee-\ 4b-\ 4e-\	.
=130	=130	=130
*^	*	*
2.F]	8.BB-L]	8.ffL 8.ee- 8.b- 8.f	.
.	16BBnk	16ffJk 16ee- 16a 16f	.
.	8C	4ff 4ee- 4g 4f	.
.	8E-	.	.
.	8D	4ff 4ee- 4a 4f)	.
.	8CJ	.	.
=131	=131	=131	=131
2F	8.BB-L	(>2dd\ 2b-\ 2d\	.
.	16GGJk	.	.
.	4FF	.	.
[4C	4EE-	4gg 4cc 4b- 4g	>
=132	=132	=132	=132
8.CL]	8.FFL	8.ccL 8.b- 8.f 8.c	]
16CJk	16CCJk	16ccJk 16a 16f 16c	.
4C	4FF	4cc 4g 4f 4c	.
4C	4CC	)4cc^< 4a 4f 4c	.
=133	=133	=133	=133
!	!	!LO:S:s=1:note:problem:note-level slur	!
2C	8.FFL	(>2cc^< 2a-X 2f 2c	.
.	16DD-XJk	.	.
.	4CC	.	.
[4C	4FF	4dd^< 4a- 4d	.
*v	*v	*	*
=134	=134	=134
*	*	*^
*ped	*	*	*
8C'\] 8CC\	8ee-\' 8g\ 8e-\)	.	.
16r	16r	.	.
*Xped	*	*	*
16C\	(>16e- 16G<	<	.
!	!LO:TX:t=cresc _:problem:dynamics with extention lines	!	!
!	!	!	!LO:HP:i:t=cres:ext=ud
4.C\	4.e- 4.F#X<	.	<
8BBn\	8d 8G<	.	.
!!LO:LB:g=original
=135	=135	=135	=135
8D\L	8f 8G#X<L	.	.
16r	16r	.	.
16C#XJk	16en 16A<J	.	.
4.En	4.g 4.A#X<	.	.
8D#X	8f#X 8Bn<	[	[
*	*	*v	*v
=136	=136	=136
8F#XL	8aL 8B#X	.
16r	16r	.
16E#XJk	16g#XJk 16c#X	.
(>4G#X	)2bn 2f 2d	.
*ped	*	*
8A-XL)	.	.
N(>8G#J	.	.
=137	=137	=137
*k[b-e-a-]	*k[b-e-a-]	*
*	*^	*
*Xped	*	*	*
4r	[>4b	[<2.gN)	fz >
(>8fL	(>8bL]	.	.
8e-	8cc	.	]
8d	8dd 8b	.	.
8cJ	8ee-J 8cc	.	.
=138	=138	=138	=138
*	*	*^	*
8.dL	8.ffL	4bn	2.g\_<	.
16GJk	16ggJk	.	.	.
4d	4ff	4b	.	.
4c	4ee-	4cc	.	.
=139	=139	=139	=139	=139
8.dL	8.ffL	4bn	2.g\_<	.
16GJk	16ggJk	.	.	.
4d	4ff	4b	.	.
4c)	4ee-)	4cc	.	.
*	*	*v	*v	*
=140	=140	=140	=140
2.r	2.r	4g\]	.
.	.	(>/8Bn<L	.
.	.	8c<	.
.	.	8d<	.
.	.	8e-<J	.
!!LO:LB:g=original
=141	=141	=141	=141
4r	4r	[<2.d)	>
(>8cL	8r	.	]
8B-	(>8gL	.	.
8Any	8an 8f#X	.	.
8GJ	8b-J 8g	.	.
=142	=142	=142	=142
*	*	*^	*
8.AnL	8.ccL	4f#X	2.d\_<	.
16DJk	16ddJk	.	.	.
4A	4cc	4f#	.	.
4G	4b-	4g	.	.
=143	=143	=143	=143	=143
8.AnL	8.ccL	4f#X	2.d\]	.
16DJk	16ddJk	.	.	.
4A	4cc	4f#	.	.
[>4G	4b-	4g	.	.
*	*	*v	*v	*
=144	=144	=144	=144
*^	*	*	*
!	!	!	!	!LO:HP:a
2.c)	2.G]	2a-	2.e-	>
.	.	4f#X	.	]
*	*	*v	*v	*
=145	=145	=145	=145
[>2.G	4r	4.g 4.d 4.Bn)	.
.	(<8FL	.	.
.	8E-	8cL	.
.	8D	8d 8B	.
.	8CJ	8e-J 8c	.
=146	=146	=146	=146
*	*	*^	*
2.G_>	8.DL	8.fL	4Bn	.
.	16GGJk	16gJk	.	.
.	4D	4f	4B	.
.	4C	4e-	4c	.
=147	=147	=147	=147	=147
2.G_>	8.DL	8.fL	4Bn	.
.	16GGJk	16gJk	.	.
.	4D	4f	4B	.
.	4C	4e-	4c	.
*v	*v	*	*	*
*	*v	*v	*
!!LO:LB:g=original
=148	=148	=148
!LO:TX:b:t=P:problem:w źródle brak zakończenia łuku poniżej 8G	!	!
8G/L])	2.r	.
N(>8CM<	.	.
8BBn	.	<
8C	.	.
8D	.	.
8E-J	.	.
=149	=149	=149
*	*	*^
8DL	8D<L	.	.
8C#X\	8En<	.	.
8Cn	8F#X<	.	<
8BB-	8G<	.	.
8AAn	8An< 8F#<	[	.
8GGJ	8B-< 8G<J	.	.
*	*	*v	*v
=150	=150	=150
8AAn\L	8An<L 8Fn<	.
16r	16r	.
16AAAnJk	16c#XJk 16En<	.
*ped	*	*
!	!LO:S:s=1:note:problem:note-level slur	!
2DD\	2dN) 2D<	f
=151	=151	=151
*^	*	*
8AnL	2.D	(>8anL 8f	p
*Xped	*	*	*
16r	.	16r	[
16GJk	.	16cc#XJk 16en	.
2F	.	2dd 2d)	.
=152	=152	=152	=152
8AnL	[<2.D	(>8anL 8f	.
16r	.	16r	.
16GJk	.	16cc#XJk 16en	.
2F	.	2dd [<2d)	.
=153	=153	=153	=153
*	*	*^	*
8AnL	2.D_<	(>8anL	2.d_<	.
8cJ	.	8ccJ	.	.
4B-	.	4b-M>	.	.
8AL	.	8aL	.	.
8GJ	.	8gJ	.	.
!!LO:LB:g=original
=154	=154	=154	=154	=154
8.AnyL	2.D_<	8.anyL	2.d_<	.
16EnJk	.	16enJk	.	.
4F	.	4f	.	.
4D	.	4d	.	.
=155	=155	=155	=155	=155
8AnL	2.D_<	8anL	2.d_<	.
8cJ	.	8ccJ	.	.
4B-	.	4b-M>	.	.
8AL	.	8aL	.	.
8GJ	.	8gJ	.	.
=156	=156	=156	=156	=156
8.AnL	2.D_<	8.anL	2.d_<	.
16EnJk	.	16fnJk	.	.
4F	.	4f	.	.
4D	.	4d	.	.
=157	=157	=157	=157	=157
8.AnL	2.D_<	[>2.a 2.d_<	8.anL	.
16EnJk	.	.	16en/Jk	.
4F	.	.	4f/	.
4D	.	.	4d/	.
=158	=158	=158	=158	=158
8.AnL	2.D]	2.a] 2.d]	8.anL	.
16EnJk	.	.	16en\Jk	.
4F	.	.	4f\	.
4D	.	.	[<4d\	.
*v	*v	*	*	*
*	*v	*v	*
=159	=159	=159
(>2.GG	)2.bn 2.g ]2.d	.
!!LO:PB:g=original
=160	=160	=160
8GL)	2.r	.
16r	.	.
16GJk'>	.	<
4G'>	.	.
N(>4G	.	.
=161	=161	=161
*	*^	*
4r	4r	[<2.gN)	[
(>8fL	8r	.	.
8e-	(>8ccL	.	.
8d	8dd 8bn	.	.
8cJ	8ee-J 8cc	.	.
=162	=162	=162	=162
*	*	*^	*
8.dL	8.ffL	4bn	2.g\_<	.
16GJk	16ggJk	.	.	.
4d	4ff	4b	.	.
4c	4ee-	4cc	.	.
=163	=163	=163	=163	=163
8.dL	8.ffL	4bn	2.g\_<	.
16GJk	16ggJk	.	.	.
4d	4ff	4b	.	.
4c)	4ee-	4cc)	.	.
*	*	*v	*v	*
=164	=164	=164	=164
2.r	2.r	4g\]	.
.	.	(>\8BnL	.
.	.	8c	.
.	.	8d	.
.	.	8e-J	.
=165	=165	=165	=165
!LO:N:vis=2.	!	!	!
8d>L	8r	[<2.d)	>
(>8c#X	(>8enL	.	.
8cn	8f#X	.	]
8B-	8g	.	.
8An	8an 8f#	.	.
8GJ	8b-J 8g	.	.
!!LO:LB:g=original
=166	=166	=166	=166
*	*	*^	*
8.AnL	8.ccL	4f#X	2.d\_<	.
16DJk	16ddJk	.	.	.
4A	4cc	4f#	.	.
4G	4b-	4g	.	.
=167	=167	=167	=167	=167
8.AnL	8.ccL	4f#X	2.d\]	.
16DJk	16ddJk	.	.	.
4A	4cc	4f#	.	.
[>4G	4b-	4g	.	.
*	*	*v	*v	*
=168	=168	=168	=168
(>2.c 2.G])	2a-X	2.e-	>
.	4f#X	.	]
*	*v	*v	*
=169	=169	=169
*^	*	*
[>2.G)	4r	4.g 4.d 4.Bn)	.
.	(<8F\L	.	.
.	8E-	(>8cL	.
.	8D	8d 8B	.
.	8CJ	8e-J 8c	.
=170	=170	=170	=170
*	*	*^	*
2.G_>	8.DL	8.fL	4Bn	.
.	16GGJk	16gJk	.	.
.	4D	4f	4B	.
.	4C	4e-	4c	.
=171	=171	=171	=171	=171
[>2.G]	8.DL	8.fL	4Bn	.
.	16GGJk	16gJk	.	.
.	4D	4f	4B	.
.	4C)	)4e-	4c	.
*v	*v	*	*	*
*	*v	*v	*
!!LO:LB:g=original
=172	=172	=172
8G/L]	2.r	.
(>8CM<	.	.
8BBn	.	.
8C	.	.
8D	.	.
8E-J	.	.
=173	=173	=173
*^	*	*
)2.A-	2.F	4r	<
.	.	(>8cL	.
.	.	8d-X	.
.	.	8e-	.
.	.	8fJ	.
*v	*v	*	*
=174	=174	=174
*	*^	*
2.A- 2.E-	8rff	2.g-X 2.c	[
.	16rff	.	.
.	16a-	.	.
.	4a-	.	.
.	4a-	.	.
=175	=175	=175	=175
*^	*	*	*
2.A-	>2D-y	8.a-L	2.f 2.d-X	.
.	.	16a-Jk	.	.
.	.	4a-	.	.
.	4C	4a-	.	.
*v	*v	*	*	*
=176	=176	=176	=176
2BBn	4a-	2f 2dn	.
.	)4g	.	.
!	!	!	!LO:HP:b=2
4r	4r	4r	<
*	*v	*v	*
=177	=177	=177
(<4GG	2.r	.
8AAnL	.	.
8BBn	.	.
8C	.	.
8DJ)	.	.
=178	=178	=178
!	!LO:S:s=1:note:problem:note-level slur	!
8.E-L	(>2.g-X 2.c< 2.An<	.
16E-Jk	.	.
4E-	.	.
4E-	.	.
.	.	[
!!LO:LB:g=original
=179	=179	=179
*^	*^	*
*	*^	*	*	*
4c	2.A-X/	8.E-L	2.f	2f	.
.	.	16E-Jk	.	.	.
4Bn	.	4D	.	.	.
4ryy	.	4C\	.	4e-	.
*	*v	*v	*	*	*
=180	=180	=180	=180	=180
2A-	2.C-X	2f	2.e-	.
4An	.	4f#	.	.
*v	*v	*	*	*
*	*v	*v	*
=181	=181	=181
(<4.BB-\	2.g 2.e- 2.B-<	.
8E-L	.	.
8G	.	.
8cJ	.	.
=182	=182	=182
8B-L)	2.d 2.A-<	.
16r	.	.
(<16BB-Jk	.	.
8qD/	.	.
4C\	.	.
4BB-\	.	.
=183	=183	=183
*^	*	*
2.An 2.F)	(<4.AAn	8.c#XL	.
.	.	16dJk	.
.	.	4f	.
.	8DL	.	.
.	8F	4en	.
.	8AJ	.	.
=184	=184	=184	=184
2.Bn 2.F	8G#XL)	2en	.
.	16r	.	.
.	(<16GG#X\Jk	.	.
.	4F	.	.
.	4GG#)	4d	.
!!LO:LB:g=original
=185	=185	=185	=185
*	*	*^	*
4F	2.GGn	8.dL	2.B-X>\	.
.	.	16c#XJk	.	.
2En/	.	4b-/	.	.
.	.	4c#)	.	.
*	*	*v	*v	*
=186	=186	=186	=186
*	*^	*	*
2.An	4EnX	8.GG\L	(>2d-X	.
.	.	16FF#X\Jk	.	.
.	4E-X	2E-X/	.	.
.	4GG-X	.	4c)	.
=187	=187	=187	=187	=187
*	*	*	*^	*
2.A-X	4E-	4.FF\	(>8cL	8ryy	.
.	.	.	8d-XJ	4.d-X	.
.	4.D-X	.	4a-	.	.
.	.	8EE-\L	.	.	.
.	.	8DD-X\	4a-	8fL	.
.	8r	8FFF\J	.	8d-J	.
*v	*v	*v	*	*	*
*	*v	*v	*
=188	=188	=188
*ped	*	*
8GGGL	2a- 2f 2Bn	>
(>8GGJ	.	.
4Dn	.	.
*Xped	*	*
4Bn	4g 4f)	]
=189	=189	=189
*ped	*	*
4C 4CC	(>8ccL 8c	fz
.	8en	p
4r	8g	.
.	8b-	.
4en 4G	8b	.
*Xped	*	*
.	8ccJ	.
=190	=190	=190
*ped	*	*
4C'<	8ddL	.
.	8b-XJ	.
4en 4G	4.aa-	.
4e 4G	.	.
.	)8gg	.
!!LO:PB:g=original
=191	=191	=191
*^	*^	*
4r	2.C	4r	4ryy	.
4d-X	.	(>4b-	4en	.
.	.	8qcc/	.	.
[>4d-	.	8b-L	4e^<	.
.	.	8anJ	.	.
=192	=192	=192	=192	=192
4d-X]	2.C	(>4a-X/)	4enX	.
4B-	.	4a-	4e 4d-X	.
.	.	8qb-/	.	.
4B-	.	8a-L	4e^< 4d-^<	.
.	.	8gJ)	.	.
*v	*v	*	*	*
*	*v	*v	*
=193	=193	=193
*ped	*	*
4CC'<	(>8fL	.
.	8gg	.
4f 4A-	8ff	.
.	8een	.
4f 4A-	8ee-X	.
*Xped	*	*
.	[>8ddJ	.
!!LO:LB:g=original
=194	=194	=194
*ped	*	*
4C'<	8ddL]	.
.	8qee-/	.
.	8dd-X	.
4f 4A-	8cc	.
.	8bn	.
4f 4A-	8a-	.
*Xped	*	*
.	[>8gJ	.
=195	=195	=195
*	*^	*
*ped	*	*	*
4CC'<	)8gL]	4r	.
.	16r	.	.
.	(>16fJk	.	.
4G/	4f	4Bn	.
[>4G/	[>4f	[<4B	.
=196	=196	=196	=196
*^	*	*	*
4G]	2.GG	8.fL]	4BnX]	.
.	.	16fJk	.	.
4G	.	4g	4B	.
*Xped	*	*	*	*
4G	.	4dn	4B	.
*v	*v	*	*	*
*	*v	*v	*
!!LO:LB:g=original
=197	=197	=197
*ped	*	*
4CC'<	8enL	.
.	8f#X	.
4en 4G	8g	.
.	8a-	.
4e 4G	8b-	.
*Xped	*	*
.	8ccJ	.
=198	=198	=198
*ped	*	*
4C'<	8ddL	.
.	8b-J	.
4en 4G	4.aa-	.
4e 4G	.	.
*Xped	*	*
.	8gg	.
=199	=199	=199
*	*^	*
*ped	*	*	*
4CC'<	8dddX/)	4ryy	.
.	8r	.	.
4d-X	(>4b-	4en	.
.	8qcc/	.	.
[>4d-	8b-L	(4e^<	.
*Xped	*	*	*
.	8anJ	.	.
=200	=200	=200	=200
*^	*	*	*
4d-X]	2.C	)4a-X	)4e	.
4B-	.	(>4a-	4e 4d-X	.
.	.	8qb-/	.	.
4B-	.	8a-L	4e^< 4d-^<	.
.	.	8gJ)	.	.
*v	*v	*	*	*
*	*v	*v	*
=201	=201	=201
*ped	*	*
4CC'<	(>8fL	.
.	8gg	.
4f 4A-	8ff	.
.	8een	.
4f 4A-	8ee-X	.
.	8ddJ	.
=202	=202	=202
*ped	*	*
4C'<	8dd-XL	.
.	8qee-/	.
.	8dd-	.
4f 4A-	8cc	.
.	8bn	.
4f 4A-	8a-	.
*Xped	*	*
.	8fJ	.
!!LO:LB:g=original
=203	=203	=203
*	*^	*
*ped	*	*	*
4CC'<	8aa-'>)	4r	.
.	16r	.	.
.	(>16f	.	.
4A-	4f	4Bn	.
*Xped	*	*	*
[>4A-	[4f/	[<4B	.
=204	=204	=204	=204
*^	*	*	*
4A-]	2.GG	8.fL]	4BnX]	.
.	.	16fJk	.	.
4G	.	4e-	4B	.
4G	.	4d-X)	4B	.
*v	*v	*	*	*
=205	=205	=205	=205
4CC'<	4r	2.c	.
(>8En/L	(>8b-/L	.	.
8F	8a-	.	.
8G	8g	.	.
8A-J	8fJ	.	.
=206	=206	=206	=206
*^	*	*	*
8.B-L	[<2.C	8.gL	4en 4d-X	.
16cJk	.	16a-Jk	.	.
4B-	.	4e 4g	2d-	.
)4A-	.	4f	.	.
*	*	*v	*v	*
=207	=207	=207	=207
(>4A-	2C]	8.dd-X/L 8.f/	.
.	.	16ffJk 16a-	.
8B-L	.	4ff/ 4a-/	.
8c	.	.	.
8d-X	4r	4dd- 4f	.
8e-J	.	.	.
*v	*v	*	*
=208	=208	=208
*	*^	*
2f	8.a-L	8d-L	.
.	.	8cJ	.
.	16gJk	.	.
.	4g 4Bn	2ryy	.
4G)	4ddn 4f	.	.
!!LO:LB:g=original
=209	=209	=209	=209
*^	*	*	*
*	*^	*	*	*
*	*	*	*^	*	*
4r	2.C	4ryy	4cc	8ccL	4en	.
.	.	.	.	8bn	.	.
(>8En/L	.	2ryy	4cc^>	8b-X	2ryy	.
8F	.	.	.	8a-	.	.
8G	.	.	4cc^>	8g	.	.
8A-J	.	.	.	8fJ	.	.
*	*v	*v	*	*	*	*
=210	=210	=210	=210	=210	=210
8.B-L	2.C	2cc	8.g/L	2en\	.
16cJk	.	.	16a-Jk	.	.
4B-	.	.	4g/	.	.
4A-)	.	[>4dd-X^> [<4f^>	4ryy	4ryy	.
*	*	*v	*v	*v	*
=211	=211	=211	=211
(>4A-	2C	[</8dd-XL] 8f/]	.
.	.	8aa-J ]8dd-	.
8B-L	.	4ff/ 4a-/	.
8c	.	.	.
8d-X	4r	4dd- 4f	.
8e-J	.	.	.
*v	*v	*	*
=212	=212	=212
*	*^	*
2f	8.a-L	8d-XL	.
.	.	8cJ	.
.	16gJk	.	.
.	4g 4Bn	2ryy	.
)4G	4ddn 4f	.	.
*	*v	*v	*
=213	=213	=213
*^	*	*
!	! 	!LO:TX:t=dim_:problem:dynamics with extention lines	!LO:HP:i:t=dim:ext=ud
[>2.G	(<4.C	[>2.cc [<2.en)	>
.	8GGL	.	.
.	8C	.	.
.	8DJ	.	.
=214	=214	=214	=214
2G]	8.CL	(>2cc] 2enX]	.
.	16GGJk	.	.
.	4C	.	.
4G	4GG	4bn 4f	.
!!LO:LB:g=original
=215	=215	=215	=215
[>2.G	4.C	[>2.cc [<2.eny	.
.	8GGL	.	.
.	8C	.	.
.	8DJ	.	.
=216	=216	=216	=216
2G]	8.CL	2cc] 2enX]	.
.	16GGJk	.	.
.	4C	.	.
4G	4GG	4bn 4f	.
=217	=217	=217	=217
2ryy	)4G 4C	)8een 8cc 8en	.
.	.	16r	.
.	.	(>16e	.
.	4r	4e	.
4c^> 4A-X^>	4C 4FF	4e	.
=218	=218	=218	=218
4c 4G	4C 4CC	8enL)	.
.	.	16rb	.
.	.	(>16eJk	.
4rB	4rBB	4e	.
4c^> 4A-^>	4C 4FF	4e	.
*v	*v	*	*
=219	=219	=219
4C\ 4CC\	4en'> 4c'> 4G<'>	.
4C\ 4CC\	4e'> 4c'> 4G<'>)	.
4r	4r	.
=220	=220	=220
4C\ 4CC\	4en'> 4c'> 4G<'>	.
4C\ 4CC\	4e'> 4c'> 4G<'>	.
4r	4r	]]
!!LO:PB:g=original
==	==	==
*-	*-	*-
!!title: @{OTL}; @{OPS} @{ONM} publisher: @{PPR}
!!!RDF**kern: > = above
!!!RDF**kern: < = below
!!!RDF**kern: N = linked
!!!ENC: Mateusz Mrugas
!!!END: 2018-06-07
!!!EED: Zofia Trojan
!!!EST: revision finished 2018-06-16
!!!EED2: Jędrzej Mróz
!!!EST2: revision finished 2019-05-20
!!!rism-genre: Mazurka
!!!rism-key: C minor
!!!rism-opus: op.  56, no. 3
!!!rism-title: Mazurka in C minor op.  56, no. 3
!!!rism-permalink: https://opac.rism.info/search?id=1001007671&View=rism
!!!rism-773a-OPR: 1001007620
!!!rism-parent-permalink: https://opac.rism.info/search?id=1001007620&View=rism
